; generated by PrusaSlicer 2.4.0+win64 on 2024-07-30 at 16:33:38 UTC

; 

; external perimeters extrusion width = 0.45mm
; perimeters extrusion width = 0.45mm
; infill extrusion width = 0.45mm
; solid infill extrusion width = 0.45mm
; top infill extrusion width = 0.40mm
; first layer extrusion width = 0.42mm

; external perimeters extrusion width = 0.45mm
; perimeters extrusion width = 0.45mm
; infill extrusion width = 0.45mm
; solid infill extrusion width = 0.45mm
; top infill extrusion width = 0.40mm
; first layer extrusion width = 0.42mm

M201 X500 Y500 Z100 E5000 ; sets maximum accelerations, mm/sec^2
M203 X500 Y500 Z10 E60 ; sets maximum feedrates, mm/sec
M204 P500 R1000 T500 ; sets acceleration (P, T) and retract acceleration (R), mm/sec^2
M205 X8.00 Y8.00 Z0.40 E5.00 ; sets the jerk limits, mm/sec
M205 S0 T0 ; sets the minimum extruding and travel feed rate, mm/sec
M107 ; disable fan
;TYPE:Custom
G90 ; use absolute coordinates
M83 ; extruder relative mode
M140 S60 ; set final bed temp
M104 S150 ; set temporary nozzle temp to prevent oozing during homing
G4 S10 ; allow partial nozzle warmup
G28 ; home all axis
G1 Z50 F240
G1 X2 Y10 F3000
M104 S205 ; set final nozzle temp
M190 S60 ; wait for bed temp to stabilize
M109 S205 ; wait for nozzle temp to stabilize
G1 Z0.28 F240
G92 E0
G1 Y140 E10 F1500 ; prime the nozzle
G1 X2.3 F5000
G92 E0
G1 Y10 E10 F1200 ; prime the nozzle
G92 E0
G21 ; set units to millimeters
G90 ; use absolute coordinates
M83 ; use relative distances for extrusion
; Filament gcode
M107 ; disable fan
;LAYER_CHANGE
;Z:0.2
;HEIGHT:0.2
;BEFORE_LAYER_CHANGE
G92 E0
;0.2


G1 E-5 F3600 ; retract
G1 Z.2 F9000 ; move to next layer (0)
;AFTER_LAYER_CHANGE
;0.2
G1 X88.755 Y85.806 ; move to first skirt point
G1 E5 F2400 ;  ; unretract
M204 S500 ; adjust acceleration
;TYPE:Skirt/Brim
;WIDTH:0.42
G1 F1200
G1 X89.279 Y85.333 E.02214 ; skirt
G1 X94.015 Y81.892 E.18354 ; skirt
G1 X94.626 Y81.539 E.02214 ; skirt
G1 X99.974 Y79.159 E.18354 ; skirt
G1 X100.645 Y78.94 E.02214 ; skirt
G1 X106.371 Y77.723 E.18354 ; skirt
G1 X107.073 Y77.65 E.02214 ; skirt
G1 X112.927 Y77.65 E.18354 ; skirt
G1 X113.629 Y77.723 E.02214 ; skirt
G1 X119.355 Y78.94 E.18354 ; skirt
G1 X120.026 Y79.159 E.02214 ; skirt
G1 X125.374 Y81.539 E.18354 ; skirt
G1 X125.985 Y81.892 E.02214 ; skirt
G1 X130.721 Y85.333 E.18354 ; skirt
G1 X131.245 Y85.806 E.02214 ; skirt
G1 X135.162 Y90.156 E.18354 ; skirt
G1 X135.577 Y90.727 E.02214 ; skirt
G1 X138.504 Y95.796 E.18354 ; skirt
G1 X138.791 Y96.441 E.02214 ; skirt
G1 X140.6 Y102.008 E.18354 ; skirt
G1 X140.747 Y102.699 E.02214 ; skirt
G1 X141.359 Y108.52 E.18354 ; skirt
G1 X141.359 Y109.226 E.02214 ; skirt
G1 X140.747 Y115.048 E.18354 ; skirt
G1 X140.6 Y115.738 E.02214 ; skirt
G1 X138.791 Y121.306 E.18354 ; skirt
G1 X138.504 Y121.95 E.02214 ; skirt
G1 X135.577 Y127.02 E.18354 ; skirt
G1 X135.162 Y127.591 E.02214 ; skirt
G1 X130.832 Y132.329 E.20125 ; skirt
G1 X119.096 Y141.621 E.46934 ; skirt
G1 X117 Y142.35 E.06959 ; skirt
G1 X103 Y142.35 E.43896 ; skirt
G1 X100.904 Y141.621 E.06959 ; skirt
G1 X89.168 Y132.329 E.46934 ; skirt
G1 X84.838 Y127.591 E.20125 ; skirt
G1 X84.423 Y127.02 E.02214 ; skirt
G1 X81.496 Y121.95 E.18354 ; skirt
G1 X81.209 Y121.306 E.02214 ; skirt
G1 X79.4 Y115.738 E.18354 ; skirt
G1 X79.253 Y115.048 E.02214 ; skirt
G1 X78.641 Y109.226 E.18354 ; skirt
G1 X78.641 Y108.52 E.02214 ; skirt
G1 X79.253 Y102.699 E.18354 ; skirt
G1 X79.4 Y102.008 E.02214 ; skirt
G1 X80.938 Y97.276 E.156 ; skirt
G1 X81.496 Y95.796 E.0496 ; skirt
G1 X84.423 Y90.727 E.18354 ; skirt
G1 X84.838 Y90.156 E.02214 ; skirt
G1 X88.715 Y85.85 E.18165 ; skirt
G1 E-3.5 F3600 ; retract
;WIPE_START
G1 F7200
G1 X89.279 Y85.333 E-.36371 ; wipe and retract
G1 X91.087 Y84.02 E-1.06129 ; wipe and retract
;WIPE_END
G1 E-.075 F3600 ; retract
G1 X96.104 Y118.608 F9000 ; move to first perimeter point
G1 E5 F2400 ;  ; unretract
;TYPE:Perimeter
G1 F1200
G1 X95.914 Y118.533 E.00641 ; perimeter
G1 X96.104 Y118.296 E.00955 ; perimeter
G1 X96.104 Y118.548 E.00791 ; perimeter
G1 E-3.5 F3600 ; retract
;WIPE_START
G1 F7200
G1 X95.914 Y118.533 E-.09074 ; wipe and retract
G1 X96.104 Y118.296 E-.14461 ; wipe and retract
G1 X96.104 Y118.548 E-.11977 ; wipe and retract
;WIPE_END
G1 E-1.14488 F3600 ; retract
G1 X105.848 Y127.304 F9000 ; move to first perimeter point
G1 E5 F2400 ;  ; unretract
G1 F1200
G1 X106.145 Y127.535 E.01179 ; perimeter
G1 X105.98 Y127.535 E.00519 ; perimeter
G1 X105.892 Y127.461 E.0036 ; perimeter
G1 X105.864 Y127.362 E.00322 ; perimeter
G1 E-3.5 F3600 ; retract
;WIPE_START
G1 F7200
G1 X106.145 Y127.535 E-.15666 ; wipe and retract
G1 X105.98 Y127.535 E-.07864 ; wipe and retract
G1 X105.892 Y127.461 E-.05453 ; wipe and retract
G1 X105.864 Y127.362 E-.04878 ; wipe and retract
;WIPE_END
G1 E-1.16139 F3600 ; retract
G1 X129.111 Y112.347 F9000 ; move to first perimeter point
G1 E5 F2400 ;  ; unretract
G1 F1200
G1 X129.839 Y111.967 E.02574 ; perimeter
G1 X131.445 Y113.055 E.06082 ; perimeter
G1 X133.369 Y114.43 E.07415 ; perimeter
G1 X133.129 Y115.462 E.03323 ; perimeter
G1 X132.488 Y117.567 E.06897 ; perimeter
G1 X131.536 Y119.895 E.07889 ; perimeter
G1 X130.191 Y122.354 E.08787 ; perimeter
G1 X129.087 Y122.076 E.03571 ; perimeter
G1 X129.052 Y117.226 E.15208 ; perimeter
G1 X129.111 Y112.407 E.15111 ; perimeter
G1 X129.486 Y112.577 F9000 ; move to first perimeter point
;TYPE:External perimeter
G1 F1200
G1 X129.814 Y112.405 E.01162 ; perimeter
G1 X131.229 Y113.365 E.05361 ; perimeter
G1 X132.945 Y114.59 E.0661 ; perimeter
G1 X132.765 Y115.364 E.02492 ; perimeter
G1 X132.133 Y117.44 E.06803 ; perimeter
G1 X131.195 Y119.733 E.07768 ; perimeter
G1 X130 Y121.917 E.07805 ; perimeter
G1 X129.462 Y121.782 E.01742 ; perimeter
G1 X129.429 Y117.227 E.14282 ; perimeter
G1 X129.485 Y112.637 E.14393 ; perimeter
G1 X129.369 Y112.225 F9000 ; move inwards before travel
G1 E-3.5 F3600 ; retract
;WIPE_START
G1 F7200
G1 X129.814 Y112.405 E-.19113 ; wipe and retract
G1 X131.229 Y113.365 E-.81213 ; wipe and retract
G1 X131.952 Y113.881 E-.42174 ; wipe and retract
;WIPE_END
G1 E-.075 F3600 ; retract
G1 X112.615 Y86.191 F9000 ; move to first perimeter point
G1 E5 F2400 ;  ; unretract
;TYPE:Perimeter
G1 F1200
G1 X112.991 Y86.922 E.02577 ; perimeter
G1 X113.782 Y85.786 E.04342 ; perimeter
G1 X115.063 Y86.08 E.04121 ; perimeter
G1 X117.017 Y86.6 E.06341 ; perimeter
G1 X118.994 Y87.339 E.06616 ; perimeter
G1 X120.934 Y88.27 E.06748 ; perimeter
G1 X122.808 Y89.372 E.06817 ; perimeter
G1 X124.587 Y90.623 E.06816 ; perimeter
G1 X126.235 Y92.004 E.06743 ; perimeter
G1 X127.722 Y93.495 E.06603 ; perimeter
G1 X129.003 Y95.063 E.06349 ; perimeter
G1 X129.486 Y95.723 E.02563 ; perimeter
G1 X129.443 Y103.234 E.23552 ; perimeter
G1 X128.455 Y103.377 E.03131 ; perimeter
G1 X126.304 Y103.52 E.06758 ; perimeter
G1 X125.501 Y106.537 E.09788 ; perimeter
G1 X124.857 Y109.732 E.1022 ; perimeter
G1 X124.685 Y110.76 E.03268 ; perimeter
G1 X124.643 Y112.915 E.06757 ; perimeter
G1 X124.654 Y116.597 E.11545 ; perimeter
G1 X124.689 Y117.554 E.03005 ; perimeter
G1 X125.861 Y117.91 E.0384 ; perimeter
G1 X126.384 Y118.141 E.01795 ; perimeter
G1 X127.052 Y119.018 E.03455 ; perimeter
G1 X127.049 Y120.322 E.04089 ; perimeter
G1 X126.988 Y121.778 E.0457 ; perimeter
G1 X126.894 Y122.351 E.01819 ; perimeter
G1 X126.296 Y123.061 E.02911 ; perimeter
G1 X125.214 Y123.466 E.03623 ; perimeter
G1 X124.244 Y123.466 E.03041 ; perimeter
G1 X124.234 Y123.565 E.0031 ; perimeter
G1 X124.721 Y123.795 E.01691 ; perimeter
G1 X125.011 Y124.272 E.0175 ; perimeter
G1 X125.223 Y125 E.02378 ; perimeter
G1 X125.001 Y125.73 E.02393 ; perimeter
G1 X124.7 Y126.225 E.01814 ; perimeter
G1 X124.172 Y126.458 E.01811 ; perimeter
G1 X123.792 Y126.595 E.01267 ; perimeter
G1 X123.638 Y128.137 E.04859 ; perimeter
G1 X123.563 Y129.334 E.0376 ; perimeter
G1 X122.399 Y130 E.04206 ; perimeter
G1 X121.908 Y129.181 E.02993 ; perimeter
G1 X121.709 Y126.521 E.08363 ; perimeter
G1 X121.189 Y126.358 E.01707 ; perimeter
G1 X120.543 Y125.712 E.02865 ; perimeter
G1 X120.373 Y124.804 E.02896 ; perimeter
G1 X120.622 Y124.281 E.01818 ; perimeter
G1 X121.027 Y123.753 E.02085 ; perimeter
G1 X121.332 Y123.608 E.01059 ; perimeter
G1 X121.32 Y123.535 E.00233 ; perimeter
G1 X120.231 Y123.425 E.03431 ; perimeter
G1 X119.411 Y123.27 E.02618 ; perimeter
G1 X118.671 Y122.474 E.03406 ; perimeter
G1 X118.428 Y121.367 E.03553 ; perimeter
G1 X118.425 Y119.584 E.05592 ; perimeter
G1 X118.587 Y119.1 E.01599 ; perimeter
G1 X119.24 Y118.112 E.03714 ; perimeter
G1 X120.435 Y117.679 E.03986 ; perimeter
G1 X120.711 Y117.629 E.00878 ; perimeter
G1 X120.682 Y116.701 E.02913 ; perimeter
G1 X120.274 Y111.872 E.15195 ; perimeter
G1 X119.422 Y107.532 E.13866 ; perimeter
G1 X118.864 Y105.669 E.06098 ; perimeter
G1 X118.232 Y104.051 E.05446 ; perimeter
G1 X117.549 Y102.74 E.04637 ; perimeter
G1 X116.783 Y101.71 E.04024 ; perimeter
G1 X115.221 Y101.765 E.04899 ; perimeter
G1 X115.219 Y103.006 E.03891 ; perimeter
G1 X115.161 Y105.188 E.06844 ; perimeter
G1 X114.953 Y105.977 E.02559 ; perimeter
G1 X109.199 Y105.977 E.18042 ; perimeter
G1 X109.068 Y105.12 E.02717 ; perimeter
G1 X108.987 Y103.197 E.06037 ; perimeter
G1 X109.01 Y102.493 E.02208 ; perimeter
G1 X108.284 Y102.49 E.02278 ; perimeter
G1 X107.211 Y102.419 E.03373 ; perimeter
G1 X106.508 Y102.146 E.02363 ; perimeter
G1 X106.095 Y101.736 E.01825 ; perimeter
G1 X106.06 Y100.897 E.02634 ; perimeter
G1 X104.736 Y100.897 E.04152 ; perimeter
G1 X104.651 Y102.097 E.03771 ; perimeter
G1 X104.467 Y102.758 E.02153 ; perimeter
G1 X103.481 Y103.17 E.03351 ; perimeter
G1 X102.606 Y103.128 E.02744 ; perimeter
G1 X101.53 Y102.981 E.03406 ; perimeter
G1 X100.986 Y102.37 E.02565 ; perimeter
G1 X100.821 Y101.901 E.01558 ; perimeter
G1 X100.821 Y100.955 E.02969 ; perimeter
G1 X100.78 Y99.801 E.03619 ; perimeter
G1 X97.451 Y99.856 E.1044 ; perimeter
G1 X97.416 Y92.861 E.21932 ; perimeter
G1 X97.41 Y94.132 E.03985 ; perimeter
G1 X97.318 Y96.264 E.06694 ; perimeter
G1 X97.278 Y96.56 E.00935 ; perimeter
G1 X97.406 Y96.688 E.00569 ; perimeter
G1 X97.406 Y98.937 E.07052 ; perimeter
G1 X96.578 Y98.937 E.02596 ; perimeter
G1 X95.774 Y98.818 E.0255 ; perimeter
G1 X95.737 Y100.369 E.04863 ; perimeter
G1 X95.736 Y102.368 E.0627 ; perimeter
G1 X95.293 Y102.785 E.01906 ; perimeter
G1 X94.699 Y103.118 E.02137 ; perimeter
G1 X94.203 Y103.292 E.01646 ; perimeter
G1 X92.01 Y103.135 E.06894 ; perimeter
G1 X91.959 Y98.07 E.15884 ; perimeter
G1 X92.08 Y97.525 E.01749 ; perimeter
G1 X92.597 Y96.371 E.03963 ; perimeter
G1 X93.953 Y94.679 E.06799 ; perimeter
G1 X95.981 Y92.218 E.09998 ; perimeter
G1 X96.585 Y91.865 E.02195 ; perimeter
G1 X97.419 Y92.125 E.02739 ; perimeter
G1 X97.417 Y92.649 E.01643 ; perimeter
G1 X97.856 Y91.946 E.02599 ; perimeter
G1 X98.81 Y90.701 E.04918 ; perimeter
G1 X100.628 Y88.577 E.08767 ; perimeter
G1 X102.096 Y86.937 E.06902 ; perimeter
G1 X102.633 Y86.555 E.02065 ; perimeter
G1 X103.139 Y86.459 E.01615 ; perimeter
G1 X103.697 Y86.459 E.01749 ; perimeter
G1 X104.612 Y87.983 E.05573 ; perimeter
G1 X105.158 Y87.446 E.02402 ; perimeter
G1 X106.841 Y85.662 E.07691 ; perimeter
G1 X107.658 Y85.587 E.02572 ; perimeter
G1 X111.549 Y85.564 E.12199 ; perimeter
G1 X112.341 Y85.658 E.025 ; perimeter
G1 X112.587 Y86.138 E.01691 ; perimeter
G1 E-3.5 F3600 ; retract
;WIPE_START
G1 F7200
G1 X112.991 Y86.922 E-.41898 ; wipe and retract
G1 X113.782 Y85.786 E-.65782 ; wipe and retract
G1 X114.496 Y85.95 E-.34821 ; wipe and retract
;WIPE_END
G1 E-.075 F3600 ; retract
G1 X97.041 Y92.402 F9000 ; move to first perimeter point
G1 E5 F2400 ;  ; unretract
;TYPE:External perimeter
G1 F1200
G1 X97.033 Y94.123 E.05395 ; perimeter
G1 X96.942 Y96.231 E.06616 ; perimeter
G1 X96.879 Y96.694 E.01466 ; perimeter
G1 X97.029 Y96.844 E.00665 ; perimeter
G1 X97.029 Y98.56 E.0538 ; perimeter
G1 X96.606 Y98.56 E.01327 ; perimeter
G1 X95.657 Y98.42 E.03007 ; perimeter
G1 X95.445 Y98.549 E.00779 ; perimeter
G1 X95.4 Y98.677 E.00425 ; perimeter
G1 X95.36 Y100.364 E.05293 ; perimeter
G1 X95.359 Y102.205 E.05773 ; perimeter
G1 X95.069 Y102.478 E.0125 ; perimeter
G1 X94.543 Y102.773 E.0189 ; perimeter
G1 X94.152 Y102.91 E.01299 ; perimeter
G1 X92.384 Y102.784 E.05558 ; perimeter
G1 X92.337 Y98.109 E.14658 ; perimeter
G1 X92.44 Y97.644 E.01493 ; perimeter
G1 X92.921 Y96.57 E.03692 ; perimeter
G1 X94.245 Y94.917 E.0664 ; perimeter
G1 X96.229 Y92.51 E.09779 ; perimeter
G1 X96.632 Y92.275 E.01463 ; perimeter
G1 X96.984 Y92.384 E.01155 ; perimeter
G1 X97.441 Y92.386 F9000 ; move inwards before travel
G1 E-3.5 F3600 ; retract
;WIPE_START
G1 F7200
G1 X97.033 Y94.123 E-.82606 ; wipe and retract
G1 X96.979 Y95.382 E-.59894 ; wipe and retract
;WIPE_END
G1 E-.075 F3600 ; retract
G1 X112.942 Y87.652 F9000 ; move to first perimeter point
G1 E5 F2400 ;  ; unretract
G1 F1200
G1 X113.946 Y86.21 E.05509 ; perimeter
G1 X114.972 Y86.446 E.03302 ; perimeter
G1 X116.902 Y86.959 E.06263 ; perimeter
G1 X118.846 Y87.686 E.06505 ; perimeter
G1 X120.757 Y88.603 E.06646 ; perimeter
G1 X122.604 Y89.689 E.06719 ; perimeter
G1 X124.357 Y90.922 E.06718 ; perimeter
G1 X125.98 Y92.282 E.0664 ; perimeter
G1 X127.442 Y93.748 E.06492 ; perimeter
G1 X128.705 Y95.294 E.06258 ; perimeter
G1 X129.108 Y95.845 E.02141 ; perimeter
G1 X129.068 Y102.907 E.22144 ; perimeter
G1 X128.414 Y103.002 E.02071 ; perimeter
G1 X126.915 Y103.112 E.04712 ; perimeter
G1 X126.022 Y103.157 E.02805 ; perimeter
G1 X125.92 Y103.488 E.01085 ; perimeter
G1 X125.134 Y106.451 E.09613 ; perimeter
G1 X124.486 Y109.664 E.10275 ; perimeter
G1 X124.308 Y110.725 E.03374 ; perimeter
G1 X124.266 Y112.912 E.06857 ; perimeter
G1 X124.277 Y116.604 E.11578 ; perimeter
G1 X124.322 Y117.853 E.03918 ; perimeter
G1 X124.74 Y117.955 E.01347 ; perimeter
G1 X125.728 Y118.263 E.03245 ; perimeter
G1 X126.143 Y118.447 E.01424 ; perimeter
G1 X126.675 Y119.145 E.02751 ; perimeter
G1 X126.672 Y120.314 E.03665 ; perimeter
G1 X126.612 Y121.74 E.04476 ; perimeter
G1 X126.539 Y122.187 E.01422 ; perimeter
G1 X126.071 Y122.742 E.02276 ; perimeter
G1 X125.146 Y123.089 E.03099 ; perimeter
G1 X123.918 Y123.089 E.03848 ; perimeter
G1 X123.825 Y123.835 E.02357 ; perimeter
G1 X124.098 Y123.917 E.00892 ; perimeter
G1 X124.457 Y124.088 E.01248 ; perimeter
G1 X124.663 Y124.426 E.0124 ; perimeter
G1 X124.83 Y124.998 E.0187 ; perimeter
G1 X124.654 Y125.575 E.01891 ; perimeter
G1 X124.439 Y125.928 E.01294 ; perimeter
G1 X124.032 Y126.108 E.01398 ; perimeter
G1 X123.451 Y126.317 E.01935 ; perimeter
G1 X123.395 Y126.7 E.01214 ; perimeter
G1 X123.262 Y128.107 E.04433 ; perimeter
G1 X123.199 Y129.107 E.03142 ; perimeter
G1 X122.532 Y129.489 E.02409 ; perimeter
G1 X122.278 Y129.064 E.01554 ; perimeter
G1 X122.066 Y126.238 E.08884 ; perimeter
G1 X121.391 Y126.026 E.02219 ; perimeter
G1 X120.892 Y125.527 E.0221 ; perimeter
G1 X120.766 Y124.855 E.02144 ; perimeter
G1 X120.946 Y124.479 E.01308 ; perimeter
G1 X121.271 Y124.055 E.01675 ; perimeter
G1 X121.735 Y123.835 E.01611 ; perimeter
G1 X121.639 Y123.162 E.02131 ; perimeter
G1 X121.376 Y123.162 E.00825 ; perimeter
G1 X120.285 Y123.051 E.03439 ; perimeter
G1 X119.603 Y122.922 E.02178 ; perimeter
G1 X119.018 Y122.293 E.02695 ; perimeter
G1 X118.805 Y121.326 E.03104 ; perimeter
G1 X118.802 Y119.645 E.05271 ; perimeter
G1 X118.928 Y119.267 E.0125 ; perimeter
G1 X119.486 Y118.424 E.03169 ; perimeter
G1 X120.533 Y118.044 E.03493 ; perimeter
G1 X121.098 Y117.943 E.01799 ; perimeter
G1 X121.058 Y116.679 E.03966 ; perimeter
G1 X120.648 Y111.819 E.15291 ; perimeter
G1 X119.788 Y107.442 E.13988 ; perimeter
G1 X119.221 Y105.546 E.06203 ; perimeter
G1 X118.576 Y103.895 E.05558 ; perimeter
G1 X117.869 Y102.54 E.04793 ; perimeter
G1 X117.109 Y101.508 E.04019 ; perimeter
G1 X116.944 Y101.327 E.0077 ; perimeter
G1 X114.845 Y101.401 E.06584 ; perimeter
G1 X114.842 Y103.001 E.05016 ; perimeter
G1 X114.785 Y105.134 E.06692 ; perimeter
G1 X114.662 Y105.6 E.01511 ; perimeter
G1 X109.522 Y105.6 E.16116 ; perimeter
G1 X109.443 Y105.084 E.01637 ; perimeter
G1 X109.364 Y103.191 E.0594 ; perimeter
G1 X109.369 Y102.77 E.01321 ; perimeter
